X:604
T: O JESULEIN ZART
N: E1939
O: Europa, Mitteleuropa, Deutschland
R: geistlich, Fest - Lied, Weihnachten
M: 3/4
L: 1/8
K: F
F2 | F3FF2 | G4E2 | F3ED2 | C4
c2 | A4G2 | F4G2 | C2D2E2 | F4
A2 | B4B2 | G4G2 | A4A2 | F4
F2 | G4G2 | E4E2 | F4F2 | D4
G2 | C2D2E2 | F4A2 | G2F2E2 | F4

